X:811
T:Riefield Lodge
R:Strathspey
B:The Athole Collection
M:C
L:1/8
K:G Minor
A|B<d d>c B>AB>G|A>FA>B c/B/A/G/ F>A|B<d d>c B>AB>G|
A/B/c/A/ F>A B<GG:|
A|~B>dfb g>ed>B|A>FA>B c/B/A/G/ F>A|B>dfb g>ecf|
e/d/c/B/ A/B/c/d/ ~B<G G>A|~B>dfb g>ed>B|A>FA>B c/B/A/G/ F>A|
~B>dfb g>ef>d|e/d/c/B/ d/c/B/A/ B<GG||

